X: 50
T: Donnybrook Fair
M:6/8
R:jig
K:G
D|:"G"GFG "D"AGA|"Em"Bee "D"dBA|"G"BAB GAB|"Am"AGE "G"GED|
"G"~G3 "D"AGA|"Em"Bee "D"dBA|"G"BAB GAB|1 "D"AGF "G"G2D:|2"D" AGF "G"G3f||
|:"C"gfe "D"fed|"C(Em)"ege "D"dBA|"Em"Bee "D"dBA|"Em"Bee "C(Em)"e2f|
[1"C"gfe "D"fed|"C(Em)"ege "D"dBA|"G"BAB GAB|"D"AGF "G"G3:|
[2"G"gfg "D"aga|"Em"bge "D"dBA|"G"BAB GAB|"D"AGF "G"G2|]


